X:26 
T:Let Hoary Time
F:file ID misc.early/26lht
B:"Alexander's New Scrap Book" ["Irish melody; gaily"]
Z:bill@capeirish.com
N:Repeats added - ABA in source
L:1/8
M:6/8
Q:160
R:jig
K:D
A|d2e f2d|g2e f2d|d2e fed|c3 e2A|
d2e f2d|g2e f2d|fga gec|d3 d2 :|
g|fed dcB|A2A A2g|fed c2A|B3 g2g|
fed dcB|A2A A2A|fga A2c|d3 d2 :|
P:Repeat of A part
A|d2e f2d|g2e f2d|d2e fed|c3 e2A|
d2e f2d|g2e f2d|fga gec|d3 d3-|d6|]

